X:1
T:Maplewood, LMD
T:Maplewood, LMD
T:Frank B. Smith, 1904
T:Public Domain Courtesy of the Cyber Hymnal™
C:Frank B. Smith, 1904
Z:Public Domain
Z:Courtesy of the Cyber Hymnal™
%%score ( 1 2 ) ( 3 4 )
L:1/8
Q:1/4=100
M:4/4
K:Ab
V:1 treble 
V:2 treble 
V:3 bass 
V:4 bass 
V:1
 [CE]2 | [CA]3 [DB] [Ec][EA][FA][DF] | [CE]6 (AB) | [Ac]3 [Ac] [Ad][Ac][Ac]A | [GB]6 [EB]2 | %5
 [=Ec]3 [CB] [CA][CA][Fc][_G_e] | [Fd]6 [Fd]2 | [Ec]3 [DB] [CA][Ec][DB][DG] | [CA]6 [Ec]2 | %9
 [Ae]3 [Ec] [EA][DG][CA][FB] | [=Ec]6 [Ec]2 | [Fc]3 [Fc] [FB][FB][Fc][F=d] | [Ee]6 [Ed]2 | %13
 [Ec]3 [EB] [EA]A[GB][_Gc] | [Fd]6 [Ad]2 | [Ac]3 [GB] A[Ac][GB][EG] | [EA]6 |] %17
V:2
 x2 | x8 | x6 E2 | x7 A | x8 | x8 | x8 | x8 | x8 | x8 | x8 | x8 | x8 | x5 A x2 | x8 | x4 A x3 | %16
 x6 |] %17
V:3
 [A,,A,]2 | [A,,A,]3 [A,,A,] [A,,A,][C,A,][D,A,][D,A,] | [A,,A,]6 (CD) | %3
 [A,E]3 [A,E] [A,F][A,E][A,E][F,=D] | [E,E]6 [D,G,]2 | [C,G,]3 [=E,G,] [F,A,][F,A,][F,A,][C,A,] | %6
 [D,A,]6 [D,A,]2 | [E,A,]3 [E,G,] [E,A,][E,A,][E,G,][E,B,] | [A,,A,]6 A,2 | %9
 [A,C]3 A, [A,C][E,B,][F,A,][D,F,] | [C,G,]6 [C,G,]2 | %11
 [F,A,]3 [F,A,] [B,,A,][B,,A,][B,,A,][B,,A,] | [E,G,]6 [E,G,]2 | A,3 [G,D] [A,C][C,E][E,E][A,E] | %14
 [D,D]6 [D,F]2 | [E,E]3 [E,D] [E,C][E,E][E,D][E,D] | [A,,C]6 |] %17
V:4
 x2 | x8 | x6 A,2 | x8 | x8 | x8 | x8 | x8 | x6 A,2 | x3 A, x4 | x8 | x8 | x8 | A,3 x5 | x8 | x8 | %16
 x6 |] %17

